resources/svg/major-exchange.svg

<svg xmlns="http://www.w3.org/2000/svg" viewBox="0 0 20 20" fill="currentColor"><path d="M17.986 12.166a3 3 0 1 1-1.973 0 1.003 1.003 0 0 1-.013-.166v-2.001a3.999 3.999 0 0 0-3.999-3.999h-.587l1.293 1.293a1 1 0 1 1-1.414 1.414l-3-3a1 1 0 0 1 0-1.414l3-3a1 1 0 0 1 1.414 1.414l-1.293 1.293h.587a5.999 5.999 0 0 1 5.999 5.999v2.001c0 .057-.005.112-.014.166zm-14-4.332c.01.054.014.11.014.166v2.001a4 4 0 0 0 3.999 3.999h.587l-1.293-1.293a1 1 0 0 1 1.414-1.414l3 3a1 1 0 0 1 0 1.414l-3 3a1 1 0 1 1-1.414-1.414l1.293-1.293h-.587a6 6 0 0 1-5.999-5.999v-2.001c0-.057.005-.112.014-.166a3 3 0 1 1 1.972 0zm.014-2.834a1 1 0 1 0-2 0 1 1 0 0 0 2 0zm14 10a1 1 0 1 0-2.001.001 1 1 0 0 0 2.001-.001z"/></svg>

<svg xmlns="http://www.w3.org/2000/svg" viewBox="0 0 20 20" fill="currentColor"><path d="M17.986 12.166a3 3 0 1 1-1.973 0A1.003 1.003 0 0 1 16 12V9.999A3.999 3.999 0 0 0 12.001 6h-.587l1.293 1.293a1 1 0 1 1-1.414 1.414l-3-3a1 1 0 0 1 0-1.414l3-3a1 1 0 0 1 1.414 1.414L11.414 4h.587A5.999 5.999 0 0 1 18 9.999V12c0 .057-.005.112-.014.166zm-14-4.332c.01.054.014.11.014.166v2.001A4 4 0 0 0 7.999 14h.587l-1.293-1.293a1 1 0 0 1 1.414-1.414l3 3a1 1 0 0 1 0 1.414l-3 3a1 1 0 1 1-1.414-1.414L8.586 16h-.587A6 6 0 0 1 2 10.001V8c0-.057.005-.112.014-.166a3 3 0 1 1 1.972 0zM4 5a1 1 0 1 0-2 0 1 1 0 0 0 2 0zm14 10a1 1 0 1 0-2.001.001A1 1 0 0 0 18 15z"/></svg>
